X:1
T:Title
%%score { ( 1 3 ) | ( 2 4 ) }
L:1/8
M:4/4
K:Ab
V:1 treble nm="Grand Piano"
V:3 treble 
V:2 bass 
V:4 bass 
V:1
 z4 z2[Q:1/4=108] [CE]2 | [CA]2 [CA]2 [Ec]3 [EB] | [FA]2 F4 A2 | E2 [CEA]2 [A,EA]2 [Ec]2 | %4
[M:3/4] [EB]6 |[M:1/4] [DE]2 |[M:4/4] [CA]2 [CA]2 [Ec]3 [EB] | [FA]2 F4 A2 | E2 [Ec]2 [Ec]2 [DB]2 | %9
 [CA]6 z2 | [Ec]4 [CA]4[K:bass] | [Ae]4 z4 | [FA]2 [FA][FB] [FA][FA] [DF]2 | [DF]2 [CE]4 E2 | %14
 E3 G B2 [EB]2 | [EA]3 B c2 c2 | B3 c d2 d2 | c3 d e4 | e4 [_Gc]4 | [FA]4 [DF]4 | E2 cc cc A2 | %21
[M:3/4] B4 [CA]2 |] %22
V:2
 z4 z2 [A,,A,]2 | [A,,A,]2 [A,,A,]2 [A,,A,]3 [C,A,] | [D,D]2 [D,A,D]4 [D,F,D]2 | %3
 [C,A,]2 A,,2 C,2 [A,,A,]2 |[M:3/4] [E,G,]6 |[M:1/4] [E,G,]2 | %6
[M:4/4] [A,,A,]2 [A,,A,]2 [A,,A,]3 [C,A,] | [D,D]2 [D,A,D]4 [D,F,D]2 | %8
 [C,A,]2 [A,,A,]2 [E,A,]2 [E,G,]2 | [A,,A,]6 z2 | [A,,A,]2 A,,A,, [A,,E,]A,, A,,2 | z4 z2 A,2 | %12
 [D,D]2 [D,D][D,D] [D,D][D,D] [D,A,]2 | [A,,A,]2 [A,,A,]4 [C,A,]2 | %14
 [E,G,D]3 [E,B,D] [E,G,D]2 [D,G,]2 | [C,A,]3 [E,G,E] [A,E]2 [A,E]2 | %16
 [E,G,E]3 [E,A,E] [E,B,E]2 [E,B,E]2 | [A,E]3 [A,B,E] [A,CA]4 | A2- [A,A-][A,A][K:bass] A,A, A,2 | %19
 D,2 D,2 D,2 D,2 | [E,A,C]2 [E,A,E][E,A,E] [E,A,E][E,A,E] [E,A,C]2 |[M:3/4] [E,G,D]4 [A,,A,]2 |] %22
V:3
 x8 | x8 | x8 | x8 |[M:3/4] x6 |[M:1/4] x2 |[M:4/4] x8 | x8 | x8 | x8 | z2 A,A, z[K:bass] E, E,2 | %11
 C2 C2 [Ec]3 B | x8 | x8 | x8 | x8 | x8 | x8 | z2 CC EE E2 | D2 D2 A,2 A,2 | x8 |[M:3/4] x6 |] %22
V:4
 x8 | x8 | x8 | x8 |[M:3/4] x6 |[M:1/4] x2 |[M:4/4] x8 | x8 | x8 | x8 | x8 | A,,2 A,,2 A,2 z =E | %12
 x8 | x8 | x8 | x8 | x8 | x8 | [A,C]2 z2[K:bass] z4 | x8 | x8 |[M:3/4] x6 |] %22

